X:949
T:Denis Enright's
S:Martin Mulvihill, 1978 Trad Fiddling from Limerick
Z:Nigel Gatherer
M:12/8
L:1/8
K:D
Bcd A2F A3 A3 | B2F A2F E3 E3 | Bcd A2F A3 A3 | dcB A2F d3 d3 :|
f2e d2f a3 a2f | g2f e2f g3 g2e | f2e d2f a3 a3 | efg f2e d3 d3 :|
<end>
<start>
